X:1
T:A Major                 Jeremiah Ingalls, 1805
T:Anonymous author, before 1794                         87. 87. 87. 87.
T:Hallelujah Hymn
T:Treble-Tenor-Bass transcribed from Ingalls' Christian Harmony , 1805 ; Counter by B, C. Johnston, 2017.
%%score [ 1 2 3 4 ]
L:1/8
Q:1/4=150
M:4/4
K:A
V:1 treble nm="Tr." snm="Tr."
V:2 treble nm="C." snm="C."
V:3 treble-8 nm="T." snm="T."
V:4 bass nm="B." snm="B."
V:1
"^1. That  name  to  me  sounds  ever  sweet,   O    glo  – ry,      Hal–le – lu   – jah,  Where grace and truth doth always meet,   O   glo – ry,     Hal–le – lu    –  jah,    Where right–eou–sness doth" c4 A2 A2 | %1
 G2 G2 A2 A2 | c2 c2 d3 c | B2 B2 c4 | c2 c2 A2 A2 | G2 G2 A2 A2 | c2 c2 d3 c | B2 B2 c4 | %8
 c4 z2 c2 | c2 e2 B2 e2 | %10
"^1. peace  em–brace,  O  glo – ry,  Hal – le  –  lu – jah,  And  o–pens   wide  a    store    of    grace,  O     glo – ry,   Hal–le–lu  – jah." d2 c2 e2 e2 | %11
 c3 d c2 B2 | B4 B2 A2 | c2 e2 A2 e2 | d2 c2 c4 | f4 c3 B | A2 B2 c4 | c4 |] %18
V:2
"^2.  A  mee–ting   place   it    is   in – deed,    O    glo  – ry,      Hal–le – lu   – jah,  Where mer–cy  meets  the  sinner's need,   O   glo – ry,     Hal–le – lu    –  jah,      And   o  –  pens    wide    a" A4 A2 A2 | %1
 B2 B2 c2 c2 | c2 A2 B3 A | E2 E2 C4 | C2 A2 A2 A2 | B2 B2 c2 c2 | c2 A2 B3 A | G2 G2 C4 | %8
 C4 z2 E2 | A2 G2 F2 E2 | %10
"^2. gra – cious  store,  O  glo – ry,  Hal – le  –  lu – jah,  Suf–fi–cient  to     re – lieve    the   poor,   O     glo – ry,   Hal–le–lu  – jah." FG A2 c2 c2 | %11
 c3 A c2 B2 | B4 B2 E2 | A2 G2 F2 E2 | FG A2 c4 | d4 c3 B | A2 B2 A4 | A4 |] %18
V:3
"^3. Hark!  don’t  you  hear  the  heavenly  call,  O   glo  –  ry,     Hal–le – lu   –  jah,    It  soundeth  loud,  it    is     to       all,      O   glo –  ry,      Hal–le – lu   –  jah;         To   high   and  low,  to \n4. Ho!   eve – ry  one  that  thirsts,  he  cries,  O   glo  –  ry,     Hal–le – lu   –   jah,  Here’s wine and milk, and large supplies,  O   glo –  ry,      Hal–le – lu   –  jah,     Come  now    to    me  and" A4 d2 d2 | %1
 B2 B2 c2 c2 | F2 A2 B3 A | G2 G2 A4 | A2 A2 d2 d2 | B2 B2 c2 c2 | F2 A2 B3 A | G2 G2 A4 | %8
 A4 z2 e2 | a2 g2 f2 e2 | %10
"^3. bond   and  free,  O    glo – ry,  Hal – le  –  lu – jah,  That none may say, Tis    not       for   me,   O     glo – ry,   Hal–le – lu  –  jah.\n4. drink  your  fill,    O    glo – ry,  Hal – le  –  lu – jah,   Tis  free  for   who –so – ev   –   er   will,   O     glo – ry,   Hal–le – lu  –  jah." fg a2 c2 c2 | %11
 e3 f e2 ^d2 | e4 e2 e2 | a2 g2 f2 e2 | fg a2 A4 | d4 e3 d | c2 E2 A4 | A4 |] %18
V:4
"^5. Come  now,  re–ceive,  I   ask   no    pay,     O    glo  – ry,     Hal–le –lu   –   jah,   But  free–ly    give   it     all   a  –  way,    O    glo  –  ry,     Hal–le – lu   –   jah,         To     all    that   do   my" A,4 D,2 D,2 | %1
 E,2 E,2 C,2 C,2 | F,2 F,2 D,3 D, | E,2 E,2 [A,,A,]4 | [A,,A,]2 [A,,A,]2 D,2 D,2 | %5
 E,2 E,2 C,2 C,2 | F,2 F,2 D,3 D, | E,2 E,2 A,,4 | A,,4 z2 A,2 | A,2 C2 D2 C2 | %10
"^5. word   be–lieve,  O     glo – ry,  Hal  – le –  lu – jah,  And  free–ly   now  my    grace    re –ceive  O     glo – ry,   Hal–le–lu  –  jah.""^__________________________________________________________\nA folk hymn (Jackson 1953b, No. 202)." B,2 A,2 A,2 A,2 | %11
 A,3 A, A,2 B,2 | E,4 E,2 A,2 | A,2 C2 D2 C2 | B,2 A,2 F,4 | D,4 C,3 D, | E,2 E,2 C,4 | C,4 |] %18

